X:6
T: ES WAR EIN MARKGRAF UEBERN RHEIN
N: Z0007
O: Europa, Mitteleuropa, Deutschland, Rheinland
R: Sagen - Lied, Romanze, Tod
M: 3/4
L: 1/8
K: A
EEE | A3=cBA | G2z
B=cd | e3d=cB | A2z
EEE | A3=cBA | G2z
B=cd | e3d=cB | A2z
eee | e3B=cA | B2z
EA=c | B3d=cB | A2z
eee | e3B=cA | B2z
EA=c | B3d=cB | A2z

